!!!OTL: DANKT DEM HERRN DASS NEUES WERDE
!!!ARE: Europa, Mitteleuropa, Deutschland
!!!SCT: F0308
!!!YEM: Copyright 1995, estate of Helmut Schaffrath.
**kern
*ICvox
*Ivox
*M3/4
*k[]
*C:
=1
{8.G
16F
8E
8e
8d
8c
=2
4c
4B}
{8.B
16c
=3
8.d
16e
4B
4A
=4
4G
2r}
=5
{8.G
16A
8B
8G
8A
8B
=6
4c
4G
4r}
=7
{8.d
16e
8f
8d
8c
8B
=8
2c
4r}
==
!!!AGN: Jugend - Lied, Dank, religioes
!!!ONB: ESAC (Essen Associative Code) Database: FINK
!!!AMT: simple triple
!!!AIN: vox
!!!EED: Helmut Schaffrath
!!!EEV: 1.0
*-
